lib/svg/file-mp3.svg

<svg width="32" height="32" viewBox="0 0 32 32" fill="none" xmlns="http://www.w3.org/2000/svg">
<path fill-rule="evenodd" clip-rule="evenodd" d="M16 6.00003H9.25C8.91132 6.00003 8.59091 6.13179 8.35813 6.3594C8.12611 6.58626 8 6.88911 8 7.20003V24.8C8 25.1109 8.12611 25.4138 8.35813 25.6407C8.59091 25.8683 8.91132 26 9.25 26H22.75C23.0887 26 23.4091 25.8683 23.6419 25.6407C23.8739 25.4138 24 25.1109 24 24.8V14H17C16.4477 14 16 13.5523 16 13V6.00003ZM26 13.0079V24.8C26 25.6561 25.652 26.4724 25.0401 27.0707C24.429 27.6682 23.6048 28 22.75 28H9.25C8.39521 28 7.57102 27.6682 6.95989 27.0707C6.348 26.4724 6 25.6561 6 24.8V7.20003C6 6.34399 6.348 5.52768 6.95989 4.92939C7.57102 4.33184 8.39521 4.00003 9.25 4.00003H16.9921C16.9972 3.99999 17.0023 3.99999 17.0074 4.00003H17.125C17.3863 4.00003 17.6373 4.10233 17.8241 4.28502L25.6991 11.985C25.8915 12.1732 26 12.4309 26 12.7V12.9926C26 12.9977 26 13.0028 26 13.0079ZM18 12V7.41424L22.5858 12H18Z" fill="#4364E8"/>
<rect x="8" y="17" width="16" height="9" fill="#4364E8"/>
<path d="M12.4258 19.2422H14.1562V25H13.0352V21.1055C13.0352 20.9935 13.0365 20.8372 13.0391 20.6367C13.0417 20.4336 13.043 20.2773 13.043 20.168L11.9531 25H10.7852L9.70312 20.168C9.70312 20.2773 9.70443 20.4336 9.70703 20.6367C9.70964 20.8372 9.71094 20.9935 9.71094 21.1055V25H8.58984V19.2422H10.3398L11.3867 23.7695L12.4258 19.2422Z" fill="white"/>
<path d="M18.3556 21.0742C18.3556 20.7747 18.2762 20.5612 18.1173 20.4336C17.9611 20.306 17.741 20.2422 17.4572 20.2422H16.3361V21.9375H17.4572C17.741 21.9375 17.9611 21.8685 18.1173 21.7305C18.2762 21.5924 18.3556 21.3737 18.3556 21.0742ZM19.547 21.0664C19.547 21.7461 19.3752 22.2266 19.0314 22.5078C18.6877 22.7891 18.1968 22.9297 17.5588 22.9297H16.3361V25H15.1408V19.2422H17.6486C18.2267 19.2422 18.6877 19.3906 19.0314 19.6875C19.3752 19.9844 19.547 20.444 19.547 21.0664Z" fill="white"/>
<path d="M20.9847 23.2617C20.9847 23.4883 21.0211 23.6758 21.0941 23.8242C21.2295 24.0977 21.4756 24.2344 21.8323 24.2344C22.0511 24.2344 22.2412 24.1602 22.4027 24.0117C22.5667 23.8607 22.6488 23.6445 22.6488 23.3633C22.6488 22.9909 22.4977 22.7422 22.1956 22.6172C22.0238 22.5469 21.7529 22.5117 21.3831 22.5117V21.7148C21.7451 21.7096 21.9977 21.6745 22.1409 21.6094C22.3883 21.5 22.512 21.2786 22.512 20.9453C22.512 20.7292 22.4482 20.5534 22.3206 20.418C22.1956 20.2826 22.0185 20.2148 21.7894 20.2148C21.5264 20.2148 21.3323 20.2982 21.2073 20.4648C21.0849 20.6315 21.0264 20.8542 21.0316 21.1328H19.9925C20.0029 20.8516 20.0511 20.5846 20.137 20.332C20.2282 20.1107 20.3714 19.9062 20.5667 19.7188C20.7126 19.5859 20.8857 19.4844 21.0863 19.4141C21.2868 19.3438 21.5329 19.3086 21.8245 19.3086C22.3662 19.3086 22.8024 19.4492 23.1331 19.7305C23.4665 20.0091 23.6331 20.3841 23.6331 20.8555C23.6331 21.1888 23.5342 21.4701 23.3363 21.6992C23.2113 21.8424 23.081 21.9401 22.9456 21.9922C23.0472 21.9922 23.193 22.0794 23.3831 22.2539C23.667 22.5169 23.8089 22.8763 23.8089 23.332C23.8089 23.8112 23.6422 24.2331 23.3089 24.5977C22.9782 24.9596 22.4873 25.1406 21.8363 25.1406C21.0342 25.1406 20.4769 24.8789 20.1644 24.3555C20.0003 24.0768 19.9092 23.7122 19.8909 23.2617H20.9847Z" fill="white"/>
</svg>

<svg xmlns="http://www.w3.org/2000/svg" width="32" height="32" fill="none" viewBox="0 0 32 32">
  <g class="file / mp3">
    <path  fill-rule="evenodd" d="M16 6H9.25c-.339 0-.66.132-.892.36-.232.226-.358.53-.358.84v17.6c0 .31.126.614.358.84.233.228.553.36.892.36h13.5c.339 0 .66-.132.892-.36.232-.226.358-.53.358-.84V14h-7a1 1 0 01-1-1V6zm10 7.008V24.8c0 .856-.348 1.672-.96 2.27a3.276 3.276 0 01-2.29.93H9.25a3.276 3.276 0 01-2.29-.93A3.176 3.176 0 016 24.8V7.2c0-.856.348-1.672.96-2.27A3.276 3.276 0 019.25 4h7.875a1 1 0 01.7.285l7.874 7.7A1 1 0 0126 12.7v.308zM18 12V7.414L22.586 12H18z" class="Union" clip-rule="evenodd"/>
    <path  d="M8 17h16v9H8z" class="Rectangle 65"/>
    <g class="MP3">
      <path  d="M12.426 19.242h1.73V25h-1.12v-3.895c0-.111 0-.268.003-.468.003-.203.004-.36.004-.469L11.953 25h-1.168l-1.082-4.832c0 .11.001.266.004.469.003.2.004.357.004.468V25H8.59v-5.758h1.75l1.047 4.527 1.039-4.527zM18.356 21.074c0-.3-.08-.513-.239-.64-.156-.128-.376-.192-.66-.192h-1.12v1.695h1.12c.284 0 .504-.069.66-.207.16-.138.239-.356.239-.656zm1.191-.008c0 .68-.172 1.16-.516 1.442-.343.281-.834.422-1.472.422h-1.223V25h-1.195v-5.758h2.508c.578 0 1.039.149 1.382.445.344.297.516.757.516 1.38zM20.985 23.262c0 .226.036.414.11.562.135.274.38.41.737.41a.815.815 0 00.57-.222c.165-.151.247-.367.247-.649 0-.372-.151-.62-.453-.746-.172-.07-.443-.105-.813-.105v-.797c.362-.005.615-.04.758-.106.247-.109.371-.33.371-.664a.738.738 0 00-.191-.527c-.125-.135-.303-.203-.532-.203-.263 0-.457.083-.582.25-.122.166-.18.39-.175.668h-1.04c.01-.281.06-.548.145-.801.091-.221.234-.426.43-.613.146-.133.319-.235.52-.305.2-.07.446-.105.738-.105.541 0 .977.14 1.308.421.334.28.5.654.5 1.125 0 .334-.099.615-.297.844-.125.143-.255.241-.39.293.101 0 .247.087.437.262.284.263.426.622.426 1.078 0 .48-.167.901-.5 1.266-.33.362-.822.543-1.473.543-.802 0-1.36-.262-1.672-.785-.164-.28-.255-.644-.273-1.094h1.094z"/>
    </g>
  </g>
</svg>
